icon-themes/breeze_svg/sw/res/sidebar/pageproppanel/column2_24x24.svg

<svg viewBox="0 0 24 24" xmlns="http://www.w3.org/2000/svg"><path d="m3 4v16h1 16 1v-16h-17zm1 1h1 15v14h-15-1zm2 5v1h5v-1zm7 0v1h5v-1zm-7 3v1h5v-1zm7 0v1h5v-1zm-7 3v1h5v-1zm7 0v1h5v-1z" fill="#4d4d4d"/><path d="m6 7v1h5v-1zm7 0v1h5v-1z" fill="#1d99f3"/></svg>

<svg xmlns="http://www.w3.org/2000/svg" viewBox="0 0 24 24">
 <path 
     style="fill:#4d4d4d" 
     d="M 3 4 L 3 20 L 4 20 L 20 20 L 21 20 L 21 4 L 4 4 L 3 4 z M 4 5 L 5 5 L 20 5 L 20 19 L 5 19 L 4 19 L 4 5 z M 6 10 L 6 11 L 11 11 L 11 10 L 6 10 z M 13 10 L 13 11 L 18 11 L 18 10 L 13 10 z M 6 13 L 6 14 L 11 14 L 11 13 L 6 13 z M 13 13 L 13 14 L 18 14 L 18 13 L 13 13 z M 6 16 L 6 17 L 11 17 L 11 16 L 6 16 z M 13 16 L 13 17 L 18 17 L 18 16 L 13 16 z "
     />
 <path 
     style="fill:#1d99f3" 
     d="M 6 7 L 6 8 L 11 8 L 11 7 L 6 7 z M 13 7 L 13 8 L 18 8 L 18 7 L 13 7 z "
     />
</svg>
